X:70
T:BRAESBAL1- The Braes of Balquhidder
S:David Young, 1740. Bodleian MS Don. d.54
Q:1/=120
L:1/8
M:C|
K:Aphrygian
c2|(A/c/d) Fc A2 Ac|(A/c/d) Fc AGGc|\
dFcF A2 Ac|defc A/A/A A:|\
c|defc A/A/A ag|fd"tr"cA cGGc|defd "tr"cAag|\
a/g/f/e/ fc A/A/A Ac|def A/A/A ag|\
fd"tr"cA cGGA|FCC FGAa|(agfe f)c A2A:|]

